X: 1385
T: Doddy Murphy's First Set Tune (A)
B: australian traditional tunes wiki
M:2/4
L:1/8
R: Polka
Q: 1/4=100
K:A
V:1 
EA[|"A"c2 ce|"A"cB- Bc|"A"A2 AF|"A"E3E|"D"FE FG|"A"AE AB|"B7"cB- BE|"E"B2 zE/A/|
"A"c2 ce|"A"cB- Bc|"A"A2 AF|"A"E2 zE|"D"Ef dB|"A"ce cA|"E7"EA/E/ FG|"A"A2 zA||
||"D"Ff- fe|"D"fd BG|"A"Ae- ec|"A"e2 E2|"D"FE FG|"A"AE AB|"B7"cB- BE|"E"BG/F/ EA|
"A"c2 ce|"A"cB- Bc|"A"A2 AF|"A"E2 zE|"D"Ff dB|"A"ce cA|"E7"EA/E/ FG|"A"A2|]
% abcbook-tune_id 6342d53af44e372b2fbf0c13


% abcbook-boost 0
% abcbook-tablature 
% abcbook-transpose 
% abcbook-lastupdated 1665324362415
% abcbook-soundfonts 
% abcbook-repeats 1
% NFF Book 2006

